public/img/svg/envelope.svg

<!-- Generated by IcoMoon.io -->
<svg version="1.1" xmlns="http://www.w3.org/2000/svg" width="42" height="32" viewBox="0 0 42 32">
<title>envelope</title>
<path d="M38.169 0.062h-34.491c-2.026 0-3.678 1.652-3.678 3.68v24.517c0 2.021 1.644 3.68 3.678 3.68h34.491c2.018 0 3.678-1.647 3.678-3.68v-24.517c0-2.021-1.644-3.68-3.678-3.68zM37.659 2.513l-16.657 16.662-16.805-16.662h33.465zM2.452 27.751v-23.515l11.808 11.707-11.808 11.808zM4.185 29.487l11.815-11.815 4.143 4.103c0.221 0.219 0.526 0.354 0.862 0.354 0.338 0 0.645-0.137 0.866-0.359l4.037-4.037 11.754 11.756h-33.477zM39.394 27.751l-11.751-11.751 11.751-11.751v23.503z"></path>
</svg>

<svg xmlns="http://www.w3.org/2000/svg" width="42" height="32" viewBox="0 0 42 32"><path d="M38.169.062H3.678A3.685 3.685 0 000 3.742v24.517a3.685 3.685 0 003.678 3.68h34.491a3.687 3.687 0 003.678-3.68V3.742a3.685 3.685 0 00-3.678-3.68zm-.51 2.451L21.002 19.175 4.197 2.513h33.465zM2.452 27.751V4.236L14.26 15.943 2.452 27.751zm1.733 1.736L16 17.672l4.143 4.103a1.221 1.221 0 001.728-.005l4.037-4.037 11.754 11.756H4.185zm35.209-1.736L27.643 16 39.394 4.249v23.503z"/></svg>
